app/images/icons/vk.svg

<svg width="20" height="20" viewBox="0 0 20 20" fill="none" xmlns="http://www.w3.org/2000/svg">
<path d="M19.9687 4.88503C20.1387 5.34456 19.6164 6.41681 18.4018 8.10176C18.2317 8.33153 18.0131 8.63789 17.7459 9.02083C17.1872 9.73566 16.8713 10.208 16.7985 10.4377C16.677 10.7441 16.7256 11.0377 16.9442 11.3185C17.0657 11.4717 17.3451 11.778 17.7823 12.2376H17.8188V12.2759C18.8148 13.2205 19.4828 14.0246 19.8229 14.6884L19.8958 14.8416L19.9687 15.1288V15.4926L19.7136 15.7798L19.0941 15.9138L16.4341 15.9904C16.264 16.016 16.0636 15.9904 15.8328 15.9138C15.602 15.8372 15.4259 15.7607 15.3045 15.6841L15.0858 15.5309C14.8672 15.3777 14.6243 15.1479 14.357 14.8416C14.0898 14.5352 13.853 14.2544 13.6465 13.9991C13.44 13.7438 13.2274 13.5332 13.0088 13.3673C12.7902 13.2013 12.5958 13.1439 12.4258 13.1949C12.4015 13.1949 12.3711 13.2077 12.3347 13.2332C12.2982 13.2588 12.2375 13.3162 12.1525 13.4055C12.0674 13.4949 11.9946 13.6034 11.9338 13.7311C11.8731 13.8587 11.8184 14.0438 11.7699 14.2863C11.7213 14.5289 11.697 14.8161 11.697 15.1479C11.697 15.2501 11.6848 15.3458 11.6605 15.4352C11.6362 15.5245 11.612 15.5947 11.5877 15.6458L11.5512 15.6841C11.4055 15.8372 11.2111 15.9138 10.9682 15.9138H9.80214C9.29199 15.9649 8.77577 15.9138 8.25348 15.7607C7.73118 15.6075 7.27569 15.4096 6.88701 15.1671C6.49832 14.9246 6.14608 14.682 5.83027 14.4395C5.51446 14.197 5.27154 13.9863 5.10149 13.8076L4.84641 13.5396C4.77353 13.4885 4.67636 13.3864 4.5549 13.2332C4.43343 13.08 4.18443 12.7482 3.8079 12.2376C3.43136 11.727 3.06089 11.1781 2.6965 10.5909C2.33211 10.0037 1.90698 9.23145 1.42113 8.27409C0.935273 7.31673 0.485856 6.32745 0.0728784 5.30627C0.0242928 5.17862 0 5.0765 0 4.99991C0 4.92332 0.0121464 4.8595 0.0364392 4.80844L0.0728784 4.77014C0.17005 4.61697 0.364392 4.54038 0.655905 4.54038H3.5346C3.60748 4.54038 3.68036 4.55952 3.75324 4.59782L3.93543 4.69356L3.97187 4.73185C4.09334 4.80844 4.17836 4.92332 4.22695 5.0765C4.3727 5.43392 4.53668 5.81048 4.71888 6.20619C4.90107 6.6019 5.04075 6.90187 5.13793 7.10611L5.28368 7.41246C5.50232 7.84647 5.70273 8.22303 5.88493 8.54215C6.06713 8.86127 6.2311 9.11019 6.37686 9.28889C6.52262 9.4676 6.66837 9.60801 6.81413 9.71013C6.95989 9.81225 7.08135 9.86331 7.17852 9.86331C7.27569 9.86331 7.37286 9.85054 7.47003 9.82502L7.50647 9.76757L7.63401 9.51866L7.77977 9.02083L7.87087 8.14006V6.76146C7.84657 6.48063 7.81013 6.21895 7.76155 5.97642C7.71296 5.73389 7.66438 5.56156 7.61579 5.45944L7.57935 5.34456C7.4093 5.08927 7.10564 4.92332 6.66837 4.84673C6.59549 4.84673 6.61979 4.75738 6.74125 4.57867C6.86271 4.45102 6.99632 4.34891 7.14208 4.27232C7.50647 4.06808 8.33243 3.97873 9.61995 4.00425C10.1787 4.00425 10.6524 4.05531 11.0411 4.15743C11.1625 4.18296 11.2719 4.22764 11.369 4.29146C11.4662 4.35529 11.5391 4.44464 11.5877 4.55952C11.6362 4.67441 11.6727 4.78929 11.697 4.90418C11.7213 5.01906 11.7334 5.185 11.7334 5.402V5.99557C11.7091 6.1998 11.697 6.4551 11.697 6.76146V7.68052C11.697 7.75711 11.6909 7.91029 11.6788 8.14006C11.6666 8.36983 11.6605 8.54853 11.6605 8.67618C11.6605 8.80383 11.6727 8.95062 11.697 9.11657C11.7213 9.28251 11.7638 9.42292 11.8245 9.53781C11.8853 9.65269 11.9642 9.73566 12.0614 9.78672C12.11 9.81225 12.1646 9.8314 12.2253 9.84416C12.2861 9.85693 12.3772 9.81863 12.4986 9.72928C12.6201 9.63993 12.7537 9.51228 12.8995 9.34633C13.0452 9.18039 13.2274 8.93148 13.4461 8.59959C13.6647 8.26771 13.8955 7.88476 14.1384 7.45076C14.5514 6.68487 14.9279 5.85515 15.268 4.96162C15.2923 4.91056 15.3227 4.85312 15.3591 4.78929C15.3956 4.72547 15.4381 4.68079 15.4867 4.65526H15.5231L15.5595 4.61697L15.7053 4.57867H15.9239L18.9119 4.54038C19.1792 4.51485 19.4039 4.52761 19.5861 4.57867C19.7683 4.62973 19.8715 4.69356 19.8958 4.77014L19.9687 4.88503Z" fill="white"/>
</svg>

<svg width="20" height="20" fill="none" xmlns="http://www.w3.org/2000/svg"><path d="M19.969 4.885c.17.46-.353 1.532-1.567 3.217-.17.23-.389.536-.656.919-.559.715-.875 1.187-.947 1.417-.122.306-.073.6.145.88.122.154.401.46.838.92h.037v.038c.996.944 1.664 1.749 2.004 2.412l.073.154.073.287v.364l-.255.287-.62.134-2.66.076c-.17.026-.37 0-.601-.076a2.501 2.501 0 01-.528-.23l-.22-.153a4.28 4.28 0 01-.728-.69 30 30 0 01-.71-.842 3.735 3.735 0 00-.638-.632c-.219-.166-.413-.223-.583-.172-.024 0-.055.013-.091.038a1.53 1.53 0 00-.183.172c-.085.09-.157.198-.218.326-.06.128-.116.313-.164.555-.049.243-.073.53-.073.862a1.1 1.1 0 01-.036.287c-.025.09-.049.16-.073.21l-.037.04a.771.771 0 01-.583.229H9.802c-.51.05-1.026 0-1.549-.153a5.49 5.49 0 01-1.366-.594c-.389-.242-.74-.485-1.057-.727a6.477 6.477 0 01-.729-.632l-.255-.268a1.64 1.64 0 01-.291-.307 46.1 46.1 0 01-.747-.995 24.693 24.693 0 01-1.111-1.647c-.365-.587-.79-1.36-1.276-2.317A38.204 38.204 0 01.073 5.306.92.92 0 010 5c0-.077.012-.14.036-.192l.037-.038c.097-.153.291-.23.583-.23h2.879c.072 0 .145.02.218.058l.182.096.037.038a.607.607 0 01.255.345c.146.357.31.733.492 1.13.182.395.322.695.419.9l.146.305c.218.434.419.811.6 1.13.183.32.347.568.493.747.146.179.291.319.437.421.146.102.267.153.365.153.097 0 .194-.012.291-.038l.036-.057.128-.25.146-.497.09-.88V6.76a7.138 7.138 0 00-.108-.785 2.442 2.442 0 00-.146-.517l-.037-.114c-.17-.256-.473-.422-.91-.498-.074 0-.05-.09.072-.268.122-.128.255-.23.401-.307.364-.204 1.19-.293 2.478-.268.559 0 1.032.051 1.421.153.121.026.23.07.328.134a.59.59 0 01.219.269c.048.114.085.23.109.344.024.115.036.281.036.498v.594a6.67 6.67 0 00-.036.765v.92c0 .076-.006.23-.018.46-.012.229-.018.408-.018.535 0 .128.012.275.036.44.024.167.067.307.128.422.06.115.14.198.236.249a.629.629 0 00.164.057c.061.013.152-.025.274-.115.121-.09.255-.217.4-.383.146-.166.328-.415.547-.746.219-.332.45-.715.692-1.15.413-.765.79-1.595 1.13-2.488.024-.051.055-.109.091-.173a.33.33 0 01.128-.134h.036l.037-.038.145-.038h.219l2.988-.039a1.87 1.87 0 01.674.039c.182.05.286.115.31.191l.073.115z" fill="#fff"/></svg>
